icon/cg/pentagon-left.svg

<svg viewBox="0 0 24 24" fill="none" xmlns="http://www.w3.org/2000/svg" height="1em" width="1em">
  <path fill-rule="evenodd" clip-rule="evenodd" d="M16 12L18 7H8L6 12L8 17H18L16 12ZM15.0459 15L13.8459 12L15.0459 9H9.35407L8.15407 12L9.35407 15H15.0459Z" fill="currentColor"/>
</svg>

<svg width="24" height="24" fill="none" xmlns="http://www.w3.org/2000/svg"><path fill-rule="evenodd" clip-rule="evenodd" d="m16 12 2-5H8l-2 5 2 5h10l-2-5Zm-.954 3-1.2-3 1.2-3H9.354l-1.2 3 1.2 3h5.692Z" fill="currentColor"/></svg>
